X:433
T: IHR FRANZOSEN GEHT NACH HAUS
N: E0356
O: Europa, Mitteleuropa, Deutschland, Jena
R: historisches Lied, Krieg gegen Frankreich (1813 und 1871)
M: 2/4
L: 1/8
K: F
 | C2A,C | FCA,F, | C3G, | B,2A,2
C2A,C | FCA,F, | C3G, | B,2A,2
F,A,A,A, | A,G,G,G,
G,B,B,B, | B,A,A,A,
A,CCC | =B,FF2
CFAF | C2G2 | F2z2

